icon/pk/user-to-user-transmission.svg

<svg viewBox="0 0 48 48" fill="none" xmlns="http://www.w3.org/2000/svg" height="1em" width="1em">
  <path d="M14 18C17.866 18 21 14.866 21 11C21 7.13401 17.866 4 14 4C10.134 4 7 7.13401 7 11C7 14.866 10.134 18 14 18Z" fill="#2F88FF" stroke="black" stroke-width="4" stroke-linejoin="round"/>
  <path d="M34 18C37.866 18 41 14.866 41 11C41 7.13401 37.866 4 34 4C30.134 4 27 7.13401 27 11C27 14.866 30.134 18 34 18Z" fill="#2F88FF" stroke="black" stroke-width="4" stroke-linejoin="round"/>
  <path d="M4 44C4 43.1111 4 40.1111 4 35C4 29.4772 7.77023 25 12.4211 25C14.6667 25 16.3509 25 17.4737 25C21.5587 25 24.0001 29.0269 24.0001 29.0269" stroke="black" stroke-width="4" stroke-linecap="round" stroke-linejoin="round"/>
  <path d="M44 44C44 43.1111 44 40.1111 44 35C44 29.4772 40.1849 25 35.4788 25C33.2064 25 31.5022 25 30.366 25C26.4048 25 23.9922 29.0269 24 29.0269" stroke="black" stroke-width="4" stroke-linecap="round" stroke-linejoin="round"/>
  <path d="M11 40H38" stroke="black" stroke-width="4" stroke-linecap="round" stroke-linejoin="round"/>
  <path d="M34.2954 36.2583L35.535 37.5055L38.0141 39.9998L35.535 42.5613L34.2954 43.8421" stroke="black" stroke-width="4" stroke-linecap="round" stroke-linejoin="round"/>
  <path d="M14.3293 36.2321L13.0701 37.4857L10.5517 39.9928L13.0701 42.5415L14.3293 43.8159" stroke="black" stroke-width="4" stroke-linecap="round" stroke-linejoin="round"/>
</svg>

<svg width="48" height="48" fill="none" xmlns="http://www.w3.org/2000/svg"><path d="M14 18a7 7 0 1 0 0-14 7 7 0 0 0 0 14ZM34 18a7 7 0 1 0 0-14 7 7 0 0 0 0 14Z" fill="#2F88FF" stroke="#000" stroke-width="4" stroke-linejoin="round"/><path d="M4 44v-9c0-5.523 3.77-10 8.421-10h5.053C21.559 25 24 29.027 24 29.027" stroke="#000" stroke-width="4" stroke-linecap="round" stroke-linejoin="round"/><path d="M44 44v-9c0-5.523-3.815-10-8.521-10h-5.113c-3.961 0-6.374 4.027-6.366 4.027M11 40h27" stroke="#000" stroke-width="4" stroke-linecap="round" stroke-linejoin="round"/><path d="m34.295 36.258 1.24 1.247L38.015 40l-2.48 2.561-1.24 1.281M14.33 36.232l-1.26 1.254-2.518 2.507 2.518 2.548 1.26 1.275" stroke="#000" stroke-width="4" stroke-linecap="round" stroke-linejoin="round"/></svg>
